**kern	**kern	**dynam
*part1	*part1	*part1
*staff2	*staff1	*
*I"Piano	*	*
*clefF4	*clefG2	*
*k[b-e-a-]	*k[b-e-a-]	*
=1	=1	=1
4AA- 4E-	8r	.
!	!LO:TX:b:i:t=cresc.	!
.	[8cL	.
8r	8c] 8f#X 8cc	.
8AA- 8C 8E-	8e-J 8f# 8cc 8ee-	<
=	=	=
4.GG 4.C 4.E-	8r	[
.	[8gL	f >
.	8g] 8cc 8ee- 8gg	]
8GG 8F 8G	8bnJ 8dd 8gg 8bbn	.
=	=	=
4C 4E- 4G	8cc 8ee- 8gg 8ccc	.
.	(8G	.
!	!	!LO:DY:a
8r	4G^) 4e-	p
8C 8E-	.	.
=	=	=
4C 4En	8r	.
.	(8G	.
8r	4G^) 4B- 4c	.
8C 8E	.	.
=	=	=
4C 4F	8r	.
.	(8An	.
8r	4A^) 4c 4f	.
8C 8F	.	.
=	=	=
4C 4F	8r	.
.	(8A-X	.
8r	4A-^) 4c	.
8C 8F	.	.
=	=	=
4C 4En	8r	.
!	!LO:TX:b:i:t=dim.	!
.	(8G	.
8r	4G^) 4c 4g	.
8C 8E-X	.	.
=	=	=
4GG 4D	8r	.
.	(8G	.
8r	4G^) 4Bn 4g	.
8GG	.	.
=	=	=
2CC; 2GG 2C	2E-; 2G 2c	pp
==	==	==
*-	*-	*-
!!!system-decoration: {(s1,s2)}
